www/assets/icons/exposure_zero.svg

<svg width="24" height="24" viewBox="0 0 24 24" xmlns="http://www.w3.org/2000/svg" fill='currentColor'><path d="M16.135 13C16.135 14 16.035 14.85 15.835 15.55C15.635 16.25 15.355 16.82 15.005 17.25C14.645 17.69 14.215 18 13.705 18.2C13.195 18.4 12.635 18.5 12.005 18.5C11.385 18.5 10.825 18.4 10.315 18.2C9.80498 18 9.36498 17.69 9.00498 17.25C8.64498 16.81 8.35498 16.24 8.15498 15.55C7.95498 14.85 7.85498 14 7.85498 13V10.96C7.85498 9.96 7.95498 9.11 8.15498 8.41C8.35498 7.71 8.63498 7.15 8.99498 6.72C9.35498 6.29 9.79498 5.98 10.305 5.79C10.805 5.6 11.375 5.5 11.995 5.5C12.625 5.5 13.185 5.6 13.695 5.79C14.205 5.98 14.645 6.29 15.005 6.72C15.365 7.15 15.645 7.71 15.845 8.41C16.045 9.11 16.145 9.95 16.145 10.96V13H16.135ZM14.025 10.64C14.025 10 13.975 9.46 13.895 9.02C13.805 8.58 13.675 8.23 13.495 7.96C13.325 7.69 13.105 7.5 12.855 7.38C12.605 7.25 12.315 7.19 11.995 7.19C11.675 7.19 11.385 7.25 11.135 7.37C10.885 7.49 10.665 7.68 10.495 7.95C10.325 8.22 10.185 8.57 10.095 9.01C10.005 9.45 9.96498 9.99 9.96498 10.63V13.3C9.96498 13.94 10.015 14.48 10.105 14.92C10.195 15.37 10.335 15.73 10.505 16.01C10.675 16.29 10.895 16.49 11.145 16.62C11.395 16.75 11.685 16.81 12.015 16.81C12.345 16.81 12.635 16.75 12.885 16.62C13.135 16.49 13.345 16.29 13.515 16.01C13.685 15.73 13.815 15.37 13.905 14.92C13.995 14.47 14.035 13.93 14.035 13.3V10.64H14.025Z"/></svg>

<svg xmlns="http://www.w3.org/2000/svg" width="24" height="24" viewBox="0 0 24 24" fill='currentColor'><path d="M16.135 13q0 1.5-.3 2.55c-.2.7-.48 1.27-.83 1.7-.36.44-.79.75-1.3.95s-1.07.3-1.7.3c-.62 0-1.18-.1-1.69-.3s-.95-.51-1.31-.95-.65-1.01-.85-1.7q-.3-1.05-.3-2.55v-2.04q0-1.5.3-2.55c.2-.7.48-1.26.84-1.69s.8-.74 1.31-.93c.5-.19 1.07-.29 1.69-.29.63 0 1.19.1 1.7.29s.95.5 1.31.93.64.99.84 1.69.3 1.54.3 2.55V13zm-2.11-2.36c0-.64-.05-1.18-.13-1.62-.09-.44-.22-.79-.4-1.06-.17-.27-.39-.46-.64-.58-.25-.13-.54-.19-.86-.19s-.61.06-.86.18-.47.31-.64.58-.31.62-.4 1.06-.13.98-.13 1.62v2.67c0 .64.05 1.18.14 1.62.09.45.23.81.4 1.09s.39.48.64.61.54.19.87.19.62-.06.87-.19.46-.33.63-.61.3-.64.39-1.09.13-.99.13-1.62v-2.66z"/></svg>
